X:22
T:Blue Bells (reel), The  
T:Master Crowley's, Miss Patterson's [Slippers]
B:CRE2.227 (Coinnle Corra)
F:file ID: cre.2/022blue_b 
M:C
R:reel
Q:180
K:Em
z|B,EGE B,EGE|FDA,D A,DFD|B,EGE B,EGE|FDA,D FEE2|
B,EGE B,EE2|FDA,D A,DFD|B,EEF G2GA|BAdA FEE:|
|:B|ebge faea|fdd2 adbd|ebge f2ef|dBAd BEE2|
ebge faea|fdd2 dfaf|G3A BAB^c|1 dBAF GEE:|\
[2 dBAF GEFD||

%%%

